X: 40250
T: Titting The Scales
R: polka
M: 2/4
K: Dmixolydian
F3/2A/ DA|FA c3/2B/|Ad d3/2e/|fd cA|
F3/2A/ DA|FA c3/2B/|Ad A/B/A/G/|FD D2:|
f3/2d/ Ad|f/f/f g2|fd A/A/d|cd Bd|
f3/2d/ Ad|f/f/f g2|fd A/B/A/G/|FD D2:|

